assets/icons/phone.svg

<svg width="18" height="18" viewBox="0 0 18 18" fill="none" xmlns="http://www.w3.org/2000/svg">
<path d="M15.228 0H1.827C1.34245 0 0.877745 0.192487 0.535116 0.535116C0.192487 0.877745 0 1.34245 0 1.827L0 15.227C0 15.7115 0.192487 16.1763 0.535116 16.5189C0.877745 16.8615 1.34245 17.054 1.827 17.054H15.227C15.4669 17.054 15.7045 17.0067 15.9262 16.9149C16.1478 16.8231 16.3492 16.6885 16.5189 16.5189C16.6885 16.3492 16.8231 16.1478 16.9149 15.9262C17.0067 15.7045 17.054 15.4669 17.054 15.227V1.827C17.054 1.34262 16.8617 0.87807 16.5192 0.535469C16.1768 0.192869 15.7124 0.000265122 15.228 0ZM14.604 11.7L14.033 14.175C14.0041 14.3008 13.9333 14.4131 13.8323 14.4936C13.7314 14.574 13.6061 14.6179 13.477 14.618C10.5491 14.618 7.74107 13.455 5.67054 11.3849C3.60001 9.31472 2.43653 6.50691 2.436 3.579C2.44095 3.45121 2.4866 3.32835 2.56629 3.22833C2.64598 3.12831 2.75554 3.05637 2.879 3.023L5.354 2.45C5.39611 2.44104 5.43896 2.43602 5.482 2.435C5.59244 2.44052 5.69938 2.47553 5.7917 2.53638C5.88403 2.59722 5.95837 2.68169 6.007 2.781L7.149 5.45C7.17696 5.52185 7.19251 5.59794 7.195 5.675C7.18583 5.844 7.1108 6.00267 6.986 6.117L5.543 7.295C6.41701 9.14723 7.90777 10.638 9.76 11.512L10.94 10.07C11.0543 9.9452 11.213 9.87017 11.382 9.861C11.4591 9.86347 11.5352 9.87902 11.607 9.907L14.273 11.05C14.3723 11.0986 14.4568 11.173 14.5176 11.2653C14.5785 11.3576 14.6135 11.4646 14.619 11.575C14.6182 11.6181 14.6131 11.6609 14.604 11.703V11.7Z" fill="white"/>
</svg>

<svg xmlns="http://www.w3.org/2000/svg" width="18" height="18" fill="none"><path fill="#fff" d="M15.228 0H1.827A1.827 1.827 0 0 0 0 1.827v13.4a1.827 1.827 0 0 0 1.827 1.827h13.4a1.83 1.83 0 0 0 1.827-1.827v-13.4A1.827 1.827 0 0 0 15.228 0m-.624 11.7-.571 2.475a.57.57 0 0 1-.556.443A11.04 11.04 0 0 1 2.436 3.579a.6.6 0 0 1 .443-.556l2.475-.573a1 1 0 0 1 .128-.015.62.62 0 0 1 .525.346L7.149 5.45a.7.7 0 0 1 .046.225.65.65 0 0 1-.209.442L5.543 7.295a8.83 8.83 0 0 0 4.217 4.217l1.18-1.442a.65.65 0 0 1 .442-.209.7.7 0 0 1 .225.046l2.666 1.143a.62.62 0 0 1 .346.525.7.7 0 0 1-.015.128z"/></svg>
